X: 40159
T: Tim Maloney's
R: reel
M: 4/4
K: Gmajor
|:DG (3GGG Bd (3ddd|dedB gedB|G2 BG DGBG|c2 Bc AGEG|
DG (3GGG Bd (3ddd|dedB d2 gf|efed Bdef|gedB AGEG:|
|:d~g3 b~g3|eBBA Bdef|g2 bg abge|(3ded BG AGEG|
d~g3 b~g3|eBBA Bdgf|efed Bdef|gedB AGEG:|

